X:1
T: The Man of the House
C:
R:Reel
Q: 232
K:Em
M:4/4
L:1/8
|:D|E2 BE GA BG|E2 BE FD AD|E2 AE GA Bc|dB cA BE ED|
E2 BE GA BG|E2 BE FD AD|E2 AE GA Bc|dB cA BE Ee|
ef ge fg af|gf ed ed Bd|ef ge fg af|gf ed Be ed|
ef ge fg af|gf ed ef ga|bg af gf ed|eB BA GE E:|
